src/assets/cards/4D.svg

<svg clip-rule="evenodd" fill-rule="evenodd" stroke-linejoin="round" stroke-miterlimit="2" viewBox="0 0 934 1300" xmlns="http://www.w3.org/2000/svg"><g fill="#d40000" fill-rule="nonzero"><path d="m146.715 229.274c41.334-40.342 68.479-84.323 94.446-126.622 22.768 46.539 55.445 87.258 90.77 126.622-37.796 39.038-67.099 80.772-90.657 124.652-26.117-44.984-53.614-85.715-94.559-124.652z"/><path d="m146.715 1057.8c41.334-40.35 68.479-84.326 94.446-126.625 22.768 46.552 55.445 87.255 90.77 126.625-37.796 39.03-67.099 80.78-90.657 124.66-26.117-44.98-53.614-85.71-94.559-124.66z"/><path d="m611.43 229.274c41.345-40.342 68.491-84.323 94.445-126.622 22.768 46.539 55.446 87.258 90.783 126.622-37.808 39.038-67.112 80.772-90.67 124.652-26.117-44.984-53.602-85.715-94.558-124.652z"/><path d="m611.43 1057.8c41.345-40.35 68.491-84.326 94.445-126.625 22.768 46.552 55.446 87.255 90.783 126.625-37.808 39.03-67.112 80.78-90.67 124.66-26.117-44.98-53.602-85.71-94.558-124.66z"/><path d="m816.39 1036.18c16.935-16.53 28.049-34.54 38.686-51.868 9.333 19.058 22.718 35.738 37.182 51.868-15.48 15.98-27.485 33.08-37.131 51.06-10.701-18.43-21.965-35.11-38.737-51.06z"/><path d="m36.313 264.874c16.935-16.52 28.049-34.546 38.687-51.87 9.333 19.067 22.705 35.751 37.181 51.87-15.48 15.994-27.485 33.092-37.131 51.068-10.7-18.427-21.965-35.111-38.737-51.068z"/><path d="m75.941 193.134v-11.716h10.775v-19.319h-53.852v-13.635l58.268-87.91 9.521.037v87.873h16.47v13.635h-16.47l-.314 19.319h9.032v11.716zm10.775-100.404-36.993 55.734h36.993z"/><path d="m857.435 1105.9v11.72h-10.776v19.32h53.853v13.62l-58.268 87.91-9.521-.02v-87.89h-16.471v-13.62h16.471l.313-19.32h-9.032v-11.72zm-10.776 100.41 36.993-55.75h-36.993z"/></g></svg>

<?xml version="1.0" encoding="UTF-8" standalone="no"?>
<!DOCTYPE svg PUBLIC "-//W3C//DTD SVG 1.1//EN" "http://www.w3.org/Graphics/SVG/1.1/DTD/svg11.dtd">
<svg width="100%" height="100%" viewBox="0 0 934 1300" version="1.1" xmlns="http://www.w3.org/2000/svg" xmlns:xlink="http://www.w3.org/1999/xlink" xml:space="preserve" xmlns:serif="http://www.serif.com/" style="fill-rule:evenodd;clip-rule:evenodd;stroke-linejoin:round;stroke-miterlimit:2;">
    <g id="_4D" serif:id="4D">
        <g id="path3656">
            <path d="M146.715,229.274C188.049,188.932 215.194,144.951 241.161,102.652C263.929,149.191 296.606,189.91 331.931,229.274C294.135,268.312 264.832,310.046 241.274,353.926C215.157,308.942 187.66,268.211 146.715,229.274Z" style="fill:rgb(212,0,0);fill-rule:nonzero;"/>
        </g>
        <g id="path3658">
            <path d="M146.715,1057.8C188.049,1017.45 215.194,973.474 241.161,931.175C263.929,977.727 296.606,1018.43 331.931,1057.8C294.135,1096.83 264.832,1138.58 241.274,1182.46C215.157,1137.48 187.66,1096.75 146.715,1057.8Z" style="fill:rgb(212,0,0);fill-rule:nonzero;"/>
        </g>
        <g id="path3660">
            <path d="M611.43,229.274C652.775,188.932 679.921,144.951 705.875,102.652C728.643,149.191 761.321,189.91 796.658,229.274C758.85,268.312 729.546,310.046 705.988,353.926C679.871,308.942 652.386,268.211 611.43,229.274Z" style="fill:rgb(212,0,0);fill-rule:nonzero;"/>
        </g>
        <g id="path3664">
            <path d="M611.43,1057.8C652.775,1017.45 679.921,973.474 705.875,931.175C728.643,977.727 761.321,1018.43 796.658,1057.8C758.85,1096.83 729.546,1138.58 705.988,1182.46C679.871,1137.48 652.386,1096.75 611.43,1057.8Z" style="fill:rgb(212,0,0);fill-rule:nonzero;"/>
        </g>
        <g id="path3738">
            <path d="M816.39,1036.18C833.325,1019.65 844.439,1001.64 855.076,984.312C864.409,1003.37 877.794,1020.05 892.258,1036.18C876.778,1052.16 864.773,1069.26 855.127,1087.24C844.426,1068.81 833.162,1052.13 816.39,1036.18Z" style="fill:rgb(212,0,0);fill-rule:nonzero;"/>
        </g>
        <g id="path3740">
            <path d="M36.313,264.874C53.248,248.354 64.362,230.328 75,213.004C84.333,232.071 97.705,248.755 112.181,264.874C96.701,280.868 84.696,297.966 75.05,315.942C64.35,297.515 53.085,280.831 36.313,264.874Z" style="fill:rgb(212,0,0);fill-rule:nonzero;"/>
        </g>
        <g id="path7104-8">
            <path d="M75.941,193.134L75.941,181.418L86.716,181.418L86.716,162.099L32.864,162.099L32.864,148.464L91.132,60.554L100.653,60.591L100.653,148.464L117.123,148.464L117.123,162.099L100.653,162.099L100.339,181.418L109.371,181.418L109.371,193.134L75.941,193.134ZM86.716,92.73L49.723,148.464L86.716,148.464L86.716,92.73Z" style="fill:rgb(212,0,0);fill-rule:nonzero;"/>
        </g>
        <g id="path7159-9">
            <path d="M857.435,1105.9L857.435,1117.62L846.659,1117.62L846.659,1136.94L900.512,1136.94L900.512,1150.56L842.244,1238.47L832.723,1238.45L832.723,1150.56L816.252,1150.56L816.252,1136.94L832.723,1136.94L833.036,1117.62L824.004,1117.62L824.004,1105.9L857.435,1105.9ZM846.659,1206.31L883.652,1150.56L846.659,1150.56L846.659,1206.31Z" style="fill:rgb(212,0,0);fill-rule:nonzero;"/>
        </g>
    </g>
</svg>
